openmetadata-ui/src/main/resources/ui/src/assets/svg/topic-grey.svg

<svg width="16" height="16" viewBox="0 0 16 16" fill="none" xmlns="http://www.w3.org/2000/svg">
<g clip-path="url(#clip0_7107_8565)">
<path fill-rule="evenodd" clip-rule="evenodd" d="M8.90114 14.5L11.9651 14.5L12.5577 14.5L13.5002 14.5C15.0066 14.5 15.4699 10.8003 15.5613 9.30148L15.5889 8.70941C15.699 5.31948 14.9842 1.50031 13.5003 1.5L2.53082 1.5C-0.247453 1.5 -0.269348 14.5 2.53081 14.5L4.65241 14.5L5.24463 14.5L8.30861 14.5L8.90114 14.5ZM12.572 13.9079L9.84383 13.9079C9.60161 13.9079 9.19656 13.4879 8.85227 12.3042C8.16244 9.93194 8.1629 6.06667 8.85227 3.69576C9.19656 2.51207 9.60161 2.09207 9.84383 2.09207L12.572 2.09207C11.0019 4.31404 11.0362 11.7344 12.572 13.9079ZM8.91548 2.09207C7.34819 4.30926 7.36576 11.7154 8.91548 13.9079L6.18732 13.9079C5.9451 13.9079 5.54005 13.4879 5.19576 12.3042C4.50593 9.93194 4.50639 6.06667 5.19576 3.69576C5.54005 2.51207 5.9451 2.09207 6.18733 2.09207L8.91548 2.09207ZM14.4918 3.69576C15.1836 6.07484 15.1785 9.94274 14.4918 12.3042C14.1476 13.4879 13.7426 13.9079 13.5002 13.9079C12.8811 13.9079 11.9921 11.6403 11.9921 8C11.9921 4.33671 12.8887 2.09223 13.5002 2.09207C13.7426 2.09207 14.1475 2.51207 14.4918 3.69576ZM2.53081 13.9079C2.28859 13.9079 1.8837 13.4879 1.5394 12.3042C0.849423 9.93194 0.849886 6.06667 1.5394 3.69576C1.88355 2.51207 2.28859 2.09207 2.53082 2.09207L5.25897 2.09207C3.72961 4.25653 3.67456 11.6655 5.25897 13.9079L2.53081 13.9079Z" fill="#37352F"/>
<path d="M8.90114 14.5C8.98579 14.5 11.8205 14.5 11.9651 14.5M8.90114 14.5L8.30861 14.5M8.90114 14.5L11.9651 14.5M11.9651 14.5L12.5577 14.5L13.5002 14.5C15.0066 14.5 15.4699 10.8003 15.5613 9.30148L15.5889 8.70941C15.699 5.31948 14.9842 1.50031 13.5003 1.5L2.53082 1.5C-0.247453 1.5 -0.269348 14.5 2.53081 14.5L4.65241 14.5L5.24463 14.5M5.24463 14.5C5.32928 14.5 8.16398 14.5 8.30861 14.5M5.24463 14.5L8.30861 14.5M12.572 13.9079L9.84383 13.9079C9.60161 13.9079 9.19656 13.4879 8.85227 12.3042C8.16244 9.93194 8.1629 6.06667 8.85227 3.69576C9.19656 2.51207 9.60161 2.09207 9.84383 2.09207L12.572 2.09207C11.0019 4.31404 11.0362 11.7344 12.572 13.9079ZM8.91548 2.09207C7.34819 4.30926 7.36576 11.7154 8.91548 13.9079L6.18732 13.9079C5.9451 13.9079 5.54005 13.4879 5.19576 12.3042C4.50593 9.93194 4.50639 6.06667 5.19576 3.69576C5.54005 2.51207 5.9451 2.09207 6.18733 2.09207L8.91548 2.09207ZM14.4918 3.69576C15.1836 6.07484 15.1785 9.94274 14.4918 12.3042C14.1476 13.4879 13.7426 13.9079 13.5002 13.9079C12.8811 13.9079 11.9921 11.6403 11.9921 8C11.9921 4.33671 12.8887 2.09223 13.5002 2.09207C13.7426 2.09207 14.1475 2.51207 14.4918 3.69576ZM2.53081 13.9079C2.28859 13.9079 1.8837 13.4879 1.5394 12.3042C0.849423 9.93194 0.849886 6.06667 1.5394 3.69576C1.88355 2.51207 2.28859 2.09207 2.53082 2.09207L5.25897 2.09207C3.72961 4.25653 3.67456 11.6655 5.25897 13.9079L2.53081 13.9079Z" stroke="#37352F" stroke-width="0.4"/>
</g>
<defs>
<clipPath id="clip0_7107_8565">
<rect width="16" height="16" fill="white"/>
</clipPath>
</defs>
</svg>

<svg xmlns="http://www.w3.org/2000/svg" width="16" height="16" fill="currentColor"><g clip-path="url(#a)"><path fill-rule="evenodd" d="M8.901 14.5H13.5c1.507 0 1.97-3.7 2.061-5.199l.028-.592c.11-3.39-.605-7.209-2.089-7.209H2.53c-2.777 0-2.8 13 0 13H8.902Zm3.671-.592H9.844c-.242 0-.647-.42-.992-1.604-.69-2.372-.69-6.237 0-8.608.345-1.184.75-1.604.992-1.604h2.728c-1.57 2.222-1.536 9.642 0 11.816ZM8.915 2.092c-1.567 2.217-1.55 9.623 0 11.816H6.187c-.242 0-.647-.42-.991-1.604-.69-2.372-.69-6.237 0-8.608.344-1.184.75-1.604.991-1.604h2.728Zm5.577 1.604c.692 2.379.686 6.247 0 8.608-.344 1.184-.75 1.604-.992 1.604-.619 0-1.508-2.268-1.508-5.908 0-3.663.897-5.908 1.508-5.908.243 0 .648.42.992 1.604ZM2.53 13.908c-.242 0-.647-.42-.992-1.604-.69-2.372-.69-6.237 0-8.608.345-1.184.75-1.604.992-1.604h2.728c-1.53 2.165-1.584 9.573 0 11.816H2.531Z" clip-rule="evenodd"/><path stroke="currentColor" stroke-width=".4" d="M8.901 14.5h3.064m-3.064 0H8.31m.592 0h3.064m0 0H13.5c1.507 0 1.97-3.7 2.061-5.199l.028-.592c.11-3.39-.605-7.209-2.089-7.209H2.53c-2.777 0-2.8 13 0 13h2.715m0 0h3.064m-3.064 0h3.064m4.263-.592H9.844c-.242 0-.647-.42-.992-1.604-.69-2.372-.69-6.237 0-8.608.345-1.184.75-1.604.992-1.604h2.728c-1.57 2.222-1.536 9.642 0 11.816ZM8.915 2.092c-1.567 2.217-1.55 9.623 0 11.816H6.187c-.242 0-.647-.42-.991-1.604-.69-2.372-.69-6.237 0-8.608.344-1.184.75-1.604.991-1.604h2.728Zm5.577 1.604c.692 2.379.686 6.247 0 8.608-.344 1.184-.75 1.604-.992 1.604-.619 0-1.508-2.268-1.508-5.908 0-3.663.897-5.908 1.508-5.908.243 0 .648.42.992 1.604ZM2.53 13.908c-.242 0-.647-.42-.992-1.604-.69-2.372-.69-6.237 0-8.608.345-1.184.75-1.604.992-1.604h2.728c-1.53 2.165-1.584 9.573 0 11.816H2.531Z"/></g><defs><clipPath id="a"><path fill="#fff" d="M0 0h16v16H0z"/></clipPath></defs></svg>
